svg/material-icons/group_remove/materialiconsround/20px.svg

<svg xmlns="http://www.w3.org/2000/svg" width="20" height="20" viewBox="0 0 20 20"><path d="M6 10c1.66 0 3-1.34 3-3S7.66 4 6 4 3 5.34 3 7s1.34 3 3 3zm5.03 2.37C9.56 11.5 7.84 11 6 11s-3.56.5-5.03 1.37c-.61.35-.97 1.02-.97 1.72V16h12v-1.91c0-.7-.36-1.37-.97-1.72zM16 14.09V16h-2.5v-1.91c0-1.15-.56-2.22-1.48-2.86 1.08.22 2.1.6 3.02 1.14.6.35.96 1.02.96 1.72zM9.38 9.93c.69-.79 1.12-1.8 1.12-2.93s-.43-2.15-1.12-2.94c.2-.04.41-.06.62-.06 1.66 0 3 1.34 3 3s-1.34 3-3 3c-.21 0-.42-.02-.62-.07zM14.5 8.5c0-.41.34-.75.75-.75h3.5c.41 0 .75.34.75.75s-.34.75-.75.75h-3.5c-.41 0-.75-.34-.75-.75z"/></svg>

<svg xmlns="http://www.w3.org/2000/svg" enable-background="new 0 0 20 20" height="20" viewBox="0 0 20 20" width="20"><rect fill="none" height="20" width="20"/><path d="M6,10c1.66,0,3-1.34,3-3S7.66,4,6,4S3,5.34,3,7S4.34,10,6,10z M11.03,12.37C9.56,11.5,7.84,11,6,11s-3.56,0.5-5.03,1.37 C0.36,12.72,0,13.39,0,14.09V16h12v-1.91C12,13.39,11.64,12.72,11.03,12.37z M16,14.09V16h-2.5v-1.91c0-1.15-0.56-2.22-1.48-2.86 c1.08,0.22,2.1,0.6,3.02,1.14C15.64,12.72,16,13.39,16,14.09z M9.38,9.93C10.07,9.14,10.5,8.13,10.5,7s-0.43-2.15-1.12-2.94 C9.58,4.02,9.79,4,10,4c1.66,0,3,1.34,3,3s-1.34,3-3,3C9.79,10,9.58,9.98,9.38,9.93z M14.5,8.5c0-0.41,0.34-0.75,0.75-0.75h3.5 c0.41,0,0.75,0.34,0.75,0.75s-0.34,0.75-0.75,0.75h-3.5C14.84,9.25,14.5,8.91,14.5,8.5z"/></svg>
